X: 1311
T: Kınalı Keklik İdim
C: Zeki Müren
O: Turkey
F: http://compmusic.upf.edu/node/140
N: saba--sarki--duyek--kinali_keklik--zeki_muren
N: makam= saba
N: form= sarki
N: usul= duyek = 8/4
M: 8/4
L: 1/16
K: C _2/4B _3/4d  
Q: 1/4=168
%%MIDI tuningsystem comma53
g2 g2 _7/8a2 f2 f2 f2 g2 e2  | e2 e2 f2 d2 d2 c4 BA  | \
w:  ARANAĞME  |   | 
B4 A2 B2 c2 d2 d2 dc  | 
w:   | 
c2 BA B2 c2 (3c2B2A2 B4  | g2 g2 _7/8a2 f2 f2 f2 g2 e2  | \
w:   |  ARANAĞME  | 
e2 e2 f2 d2 d2 c4 BA  | 
w:   | 
B4 A2 B2 c2 d2 d2 dc  | c3B B2 BA A3d cB AB  | \
w:   |   | 
A4 G2 A2 A2 A2 BA B2  | 
w:  *  Kı na lı  kek  | 
c2 dc B2 BA A4 cB AB  | A3/2B/ G2 A2 B2 c2 d2 d2 c2  | \
w:  lik  i *  *  *  *  dim   SAZ  |  *  *  *  Ka na dı *  mı   | 
c2 A4 Bc c3d c2 BA  | 
w:  kır *  dı *  lar   SAZ  | 
A4 G2 A2 A2 A2 BA B2  | c2 dc B2 BA A4 cB AB  | \
w:  *  Kı na lı  kek  |  lik  i *  *  *  *  dim   SAZ  | 
A3/2B/ G2 A2 B2 c2 d2 d2 c2  | 
w:  *  *  *  Ka na dı *  mı   | 
c2 A4 Bc c4 ed dc  | d4 c2 d2 e2 e2 d2 c2  | \
w:  kır *  dı *  lar   SAZ  |  *  A cı ma dı  | 
c2 d4 dc c3d cB BA  | 
w:  lar  *  ba *  na    | 
B4 A2 B2 c2 d4 dc  | c3B B3c (3c2B2A2 B4  | \
w:  *  Genç  ya şım *  da   |  vur *  du *  lar    | 
d4 c2 d2 e2 e2 d2 c2  | 
w:  *  A cı ma dı  | 
c2 d4 dc c3d cB BA  | B4 A2 B2 c2 d4 dc  | \
w:  lar  *  ba *  na    |  *  Genç  ya şım *  da   | 
c3B B2 BA A2 AB cd ef  | 
w:  vur *  du *  *  lar   SAZ  | 
g2 g2 _7/8a2 f2 f2 f2 g2 e2  | e2 e2 f2 d2 d2 c4 BA  | \
w:  A nam  *  *  a nam   |  a nam  *  *  a nam    | 
B4 A2 B2 c2 d4 dc  | 
w:  *  Der di mi  *  ki  | 
c2 BA B2 c2 (3c2B2A2 B4  | g2 g2 _7/8a2 f2 f2 f2 g2 e2  | \
w:  me  *  *  *  ya nam    |  A nam  *  *  a nam   | 
e2 e2 f2 d2 d2 c4 BA  | 
w:  a nam  *  *  a nam    | 
B4 A2 B2 c2 d4 dc  | c3B B2 BA A8  | \
w:  *  Der di mi  *  ki  |  me  *  ya *  *  nam    | 
g2 g2 _7/8a2 f2 f2 f2 g2 e2  | 
w:  ARANAĞME  | 
e2 e2 f2 d2 d2 c4 BA  | B4 A2 B2 c2 d2 d2 dc  | \
w:   |   | 
c2 BA B2 c2 (3c2B2A2 B4  | 
w:   | 
g2 g2 _7/8a2 f2 f2 f2 g2 e2  | e2 e2 f2 d2 d2 c4 BA  | \
w:  ARANAĞME  |   | 
B4 A2 B2 c2 d2 d2 dc  | 
w:   | 
c3B B2 BA A3d cB AB  | A4 G2 A2 A2 A2 BA B2  | \
w:   |  *  Kı na lı  kek  | 
c2 dc B2 BA A4 cB AB  | 
w:  lik  i *  *  *  *  dim   SAZ  | 
A3/2B/ G2 A2 B2 c2 d2 d2 c2  | c2 A4 Bc c3d c2 BA  | \
w:  *  *  *  Ka na dı *  mı   |  kır *  dı *  lar   SAZ  | 
A4 G2 A2 A2 A2 BA B2  | 
w:  *  Kı na lı  kek  | 
c2 dc B2 BA A4 cB AB  | A3/2B/ G2 A2 B2 c2 d2 d2 c2  | \
w:  lik  i *  *  *  *  dim   SAZ  |  *  *  *  Ka na dı *  mı   | 
c2 A4 Bc c4 ed dc  | 
w:  kır *  dı *  lar   SAZ  | 
d4 c2 d2 e2 e2 d2 c2  | c2 d4 dc c3d cB BA  | \
w:  *  A cı ma dı  |  lar  *  ba *  na    | 
B4 A2 B2 c2 d4 dc  | 
w:  *  Genç  ya şım *  da   | 
c3B B3c (3c2B2A2 B4  | d4 c2 d2 e2 e2 d2 c2  | \
w:  vur *  du *  lar    |  *  A cı ma dı  | 
c2 d4 dc c3d cB BA  | 
w:  lar  *  ba *  na    | 
B4 A2 B2 c2 d4 dc  | c3B B2 BA A2 AB cd ef  | \
w:  *  Genç  ya şım *  da   |  vur *  du *  *  lar   SAZ  | 
g2 g2 _7/8a2 f2 f2 f2 g2 e2  | 
w:  A nam  *  *  a nam   | 
e2 e2 f2 d2 d2 c4 BA  | B4 A2 B2 c2 d4 dc  | \
w:  a nam  *  *  a nam    |  *  Der di mi  *  ki  | 
c2 BA B2 c2 (3c2B2A2 B4  | 
w:  me  *  *  *  ya nam    | 
g2 g2 _7/8a2 f2 f2 f2 g2 e2  | e2 e2 f2 d2 d2 c4 BA  | \
w:  A nam  *  *  a nam   |  a nam  *  *  a nam    | 
B4 A2 B2 c2 d4 dc  | 
w:  *  Der di mi  *  ki  | 
c3B B2 BA A8  | |


